X: 10692
M: 2/4
L: 1/16
K: G
[|\
[|\
[|\
!f!_B4 B2B2 | B2_ed cBAG | =F4 F2GA | c4 _B2d2 |\
(d3c/_B/) A2c2 | (e3_B/A/) G2G2 | ^F2A2 G2_B2 | ADE^F GA=B"^D.C."c |]


